X:102
T:Lady on the Island (reel), The 
B:CRE1.188 (Bean Uasal ar an Oilean)
F:file ID: cre.1/102lady_i
S:Ned Stapleton
M:C
L:1/8
Q:180
R:reel
K:D
c|BAFA ADFE|D2FA BAFd|BAFG A2FA|defd efdc|
BAFA ADFE|D2FA BAFA|BAFG A2FA|defd e3||
A|d2fd efge|agfg edBc|d2fd efge|agfg e3A|
d2fd efge|agfg edBc|defg afbf|afdf efdc||d8||

%%%

